Assets/img/blockquote.svg

<svg viewBox="0 0 30.34 24.51" xmlns="http://www.w3.org/2000/svg"><g fill="#333"><path d="m27.05 11.29h-6.05v-4.67a2 2 0 0 1 .6-1.56c1.12-1.06 3.58-1.2 4.4-1.16a1.95 1.95 0 0 0 .17-3.9c-.48 0-4.7-.18-7.23 2.22a5.85 5.85 0 0 0 -1.83 4.39v14.6a3.29 3.29 0 0 0 3.29 3.29h6.65a3.29 3.29 0 0 0 3.29-3.29v-6.63a3.29 3.29 0 0 0 -3.29-3.29z"/><path d="m9.93 11.29h-6v-4.67a2 2 0 0 1 .6-1.56c1.08-1.06 3.54-1.2 4.31-1.16a1.95 1.95 0 1 0 .21-3.9c-.47 0-4.69-.17-7.23 2.23a5.88 5.88 0 0 0 -1.82 4.39v14.6a3.29 3.29 0 0 0 3.29 3.29h6.64a3.29 3.29 0 0 0 3.29-3.29v-6.64a3.29 3.29 0 0 0 -3.29-3.29z"/></g></svg>

<svg xmlns="http://www.w3.org/2000/svg" viewBox="0 0 30.34 24.51"><defs><style>.cls-1{fill:#333;}</style></defs><g id="Capa_2" data-name="Capa 2"><g id="Capa_1-2" data-name="Capa 1"><path class="cls-1" d="M27.05,11.29H21V6.62a2,2,0,0,1,.6-1.56C22.72,4,25.18,3.86,26,3.9A1.95,1.95,0,0,0,26.17,0c-.48,0-4.7-.18-7.23,2.22a5.85,5.85,0,0,0-1.83,4.39v14.6a3.29,3.29,0,0,0,3.29,3.29h6.65a3.29,3.29,0,0,0,3.29-3.29V14.58A3.29,3.29,0,0,0,27.05,11.29Z"/><path class="cls-1" d="M9.93,11.29h-6V6.62a2,2,0,0,1,.6-1.56C5.61,4,8.07,3.86,8.84,3.9A1.95,1.95,0,1,0,9.05,0C8.58,0,4.36-.17,1.82,2.23A5.88,5.88,0,0,0,0,6.62v14.6a3.29,3.29,0,0,0,3.29,3.29H9.93a3.29,3.29,0,0,0,3.29-3.29V14.58A3.29,3.29,0,0,0,9.93,11.29Z"/></g></g></svg>
